X:2334
L:1/8
M:3/4
K:G
 AG | GF D2 AB | cB G2 dd | e2 d2 BG | A4 dd | e2 d2 cB | dB G2 B2 | c2 E2 (FA) | G4 ||

